Numix-GalliumOS/32/actions/edit-clear-locationbar-ltr.svg

<?xml version="1.0" encoding="UTF-8" standalone="no"?>
<svg
   xmlns:dc="http://purl.org/dc/elements/1.1/"
   xmlns:cc="http://creativecommons.org/ns#"
   xmlns:rdf="http://www.w3.org/1999/02/22-rdf-syntax-ns#"
   xmlns:svg="http://www.w3.org/2000/svg"
   xmlns="http://www.w3.org/2000/svg"
   xmlns:sodipodi="http://sodipodi.sourceforge.net/DTD/sodipodi-0.dtd"
   xmlns:inkscape="http://www.inkscape.org/namespaces/inkscape"
   viewBox="0 0 32 32"
   id="svg2"
   version="1.1"
   inkscape:version="0.91 r13725"
   sodipodi:docname="edit-clear-locationbar-ltr.svg"
   width="32"
   height="32">
  <metadata
     id="metadata12">
    <rdf:RDF>
      <cc:Work
         rdf:about="">
        <dc:format>image/svg+xml</dc:format>
        <dc:type
           rdf:resource="http://purl.org/dc/dcmitype/StillImage" />
        <dc:title />
      </cc:Work>
    </rdf:RDF>
  </metadata>
  <defs
     id="defs10" />
  <sodipodi:namedview
     pagecolor="#ffffff"
     bordercolor="#666666"
     borderopacity="1"
     objecttolerance="10"
     gridtolerance="10"
     guidetolerance="10"
     inkscape:pageopacity="0"
     inkscape:pageshadow="2"
     inkscape:window-width="1547"
     inkscape:window-height="876"
     id="namedview8"
     showgrid="false"
     inkscape:zoom="9.95"
     inkscape:cx="-16.904523"
     inkscape:cy="8"
     inkscape:window-x="53"
     inkscape:window-y="24"
     inkscape:window-maximized="1"
     inkscape:current-layer="svg2" />
  <g
     id="g4135"
     transform="matrix(-1,0,0,1,32,0)">
    <path
       sodipodi:nodetypes="ccccsssc"
       style="color:#000000;opacity:1;fill:#dc322f;fill-opacity:1"
       d="M 12,6 2,16 12,26 28.071214,26 C 29.131536,25.9558 30,25.01646 30,24 L 30,8 C 30,6.93842 29.309,6 27.982842,6 Z"
       id="path4165"
       inkscape:connector-curvature="0" />
    <path
       inkscape:connector-curvature="0"
       id="path4169"
       d="m 14.006288,10 1.998952,0 c 0.02079,-2.4e-4 0.04158,-9.2e-4 0.06257,0 0.509633,0.0224 1.019206,0.25716 1.374279,0.625 l 2.561057,2.5625 2.623626,-2.5625 C 23.15773,10.164 23.519642,10.014 24.001048,10 L 26,10 l 0,2 c 0,0.57294 -0.06856,1.1013 -0.499738,1.5 l -2.561156,2.5625 2.49869,2.5 C 25.813978,18.93884 25.99998,19.4694 26,20 l 0,2 -1.998952,0 c -0.530322,-2e-5 -1.060624,-0.1862 -1.436746,-0.5625 L 20.003144,18.875 17.441987,21.4375 C 17.065864,21.81388 16.535542,22 16.00524,22 l -1.998952,0 0,-2 c 0,-0.53058 0.186102,-1.06116 0.562205,-1.4375 l 2.561157,-2.5 L 14.568493,13.5 C 14.147234,13.11074 13.962491,12.5615 14.006288,12 l 0,-2 z"
       style="color:#000000;fill:#ffffff;fill-opacity:1" />
    <path
       style="color:#000000;fill:#dc322f;fill-opacity:0.10196078"
       d="m 14.006288,10 1.998952,0 c 0.02079,-2.4e-4 0.04158,-9.2e-4 0.06257,0 0.509633,0.0224 1.019206,0.25716 1.374279,0.625 l 2.561057,2.5625 2.623626,-2.5625 C 23.15773,10.164 23.519642,10.014 24.001048,10 L 26,10 l 0,2 c 0,0.57294 -0.06856,1.1013 -0.499738,1.5 l -2.561156,2.5625 2.49869,2.5 C 25.813978,18.93884 25.99998,19.4694 26,20 l 0,2 -1.998952,0 c -0.530322,-2e-5 -1.060624,-0.1862 -1.436746,-0.5625 L 20.003144,18.875 17.441987,21.4375 C 17.065864,21.81388 16.535542,22 16.00524,22 l -1.998952,0 0,-2 c 0,-0.53058 0.186102,-1.06116 0.562205,-1.4375 l 2.561157,-2.5 L 14.568493,13.5 C 14.147234,13.11074 13.962491,12.5615 14.006288,12 l 0,-2 z"
       id="path6"
       inkscape:connector-curvature="0" />
  </g>
</svg>

<svg xmlns="http://www.w3.org/2000/svg" viewBox="0 0 32 32">
 <g transform="matrix(-1,0,0,1,32,0)">
  <path d="m 12 6 -10 10 10 10 16.07 0 c 1.06 -0.044 1.929 -0.984 1.929 -2 l 0 -16 c 0 -1.062 -0.691 -2 -2.02 -2" style="fill:#dc322f;opacity:1;fill-opacity:1;color:#000"/>
  <path d="m 14.01 10 1.999 0 c 0.021 0 0.042 -0.001 0.063 0 0.51 0.022 1.019 0.257 1.374 0.625 l 2.561 2.563 2.624 -2.563 c 0.531 -0.461 0.893 -0.611 1.374 -0.625 l 1.999 0 l 0 2 c 0 0.573 -0.069 1.101 -0.5 1.5 l -2.561 2.563 2.499 2.5 c 0.376 0.376 0.562 0.907 0.562 1.438 l 0 2 -1.999 0 c -0.53 0 -1.061 -0.186 -1.437 -0.563 l -2.561 -2.563 -2.561 2.563 c -0.376 0.376 -0.906 0.563 -1.437 0.563 l -1.999 0 0 -2 c 0 -0.531 0.186 -1.061 0.562 -1.438 l 2.561 -2.5 l -2.561 -2.563 c -0.421 -0.389 -0.606 -0.938 -0.562 -1.5 l 0 -2 z" style="fill:#fff;fill-opacity:1;color:#000"/>
  <path d="m 14.01 10 1.999 0 c 0.021 0 0.042 -0.001 0.063 0 0.51 0.022 1.019 0.257 1.374 0.625 l 2.561 2.563 2.624 -2.563 c 0.531 -0.461 0.893 -0.611 1.374 -0.625 l 1.999 0 l 0 2 c 0 0.573 -0.069 1.101 -0.5 1.5 l -2.561 2.563 2.499 2.5 c 0.376 0.376 0.562 0.907 0.562 1.438 l 0 2 -1.999 0 c -0.53 0 -1.061 -0.186 -1.437 -0.563 l -2.561 -2.563 -2.561 2.563 c -0.376 0.376 -0.906 0.563 -1.437 0.563 l -1.999 0 0 -2 c 0 -0.531 0.186 -1.061 0.562 -1.438 l 2.561 -2.5 l -2.561 -2.563 c -0.421 -0.389 -0.606 -0.938 -0.562 -1.5 l 0 -2 z" style="fill:#dc322f;fill-opacity:0.102;color:#000"/>
 </g>
</svg>
